;FLAVOR:Marlin
;TIME:5439
;Filament used: 2.44044m
;Layer height: 0.2
;MINX:76.164
;MINY:71.442
;MINZ:0.2
;MAXX:159.194
;MAXY:162.5
;MAXZ:20
;TARGET_MACHINE.NAME:Creality Ender-3
;Generated with Cura_SteamEngine 5.6.0
M140 S50
M105
M190 S50
M104 S200
M105
M109 S200
M82 ;absolute extrusion mode
; Ender 3 Custom Start G-code
G92 E0 ; Reset Extruder
G28 ; Home all axes
G1 Z2.0 F3000 ; Move Z Axis up little to prevent scratching of Heat Bed
G1 X0.1 Y20 Z0.3 F5000.0 ; Move to start position
G1 X0.1 Y200.0 Z0.3 F1500.0 E15 ; Draw the first line
G1 X0.4 Y200.0 Z0.3 F5000.0 ; Move to side a little
G1 X0.4 Y20 Z0.3 F1500.0 E30 ; Draw the second line
G92 E0 ; Reset Extruder
G1 Z2.0 F3000 ; Move Z Axis up little to prevent scratching of Heat Bed
G1 X5 Y20 Z0.3 F5000.0 ; Move over to prevent blob squish
G92 E0
G92 E0
G1 F2700 E-5
;LAYER_COUNT:100
;LAYER:0
M107
G0 F6000 X80.285 Y81.705 Z0.2
;TYPE:SKIRT
G1 F2700 E0
G1 F1200 X81.087 Y81.032 E0.03482
G1 X81.859 Y80.495 E0.0661
G1 X82.873 Y79.923 E0.10482
G1 X85.094 Y78.823 E0.18726
G1 X87.316 Y77.646 E0.27089
G1 X89.52 Y76.397 E0.35515
G1 X91.625 Y75.124 E0.43697
G1 X94.565 Y73.218 E0.5535
G1 X95.344 Y72.76 E0.58356
G1 X96.289 Y72.313 E0.61833
G1 X97.204 Y71.978 E0.65074
G1 X98.145 Y71.725 E0.68315
G1 X99.112 Y71.557 E0.71579
G1 X100.287 Y71.467 E0.75498
G1 X101.382 Y71.444 E0.79141
G1 X104.448 Y71.442 E0.89339
G1 X105.612 Y71.458 E0.93211
G1 X108.013 Y71.526 E1.012
G1 X113.632 Y71.534 E1.19889
G1 X114.354 Y71.545 E1.2229
G1 X115.342 Y71.605 E1.25582
G1 X116.306 Y71.751 E1.28825
G1 X117.253 Y71.982 E1.32067
G1 X118.109 Y72.27 E1.35071
G1 X119.064 Y72.688 E1.38538
G1 X119.856 Y73.122 E1.41542
G1 X120.472 Y73.521 E1.43983
G1 X121.282 Y74.086 E1.47268
G1 X123.388 Y75.508 E1.5572
G1 X125.58 Y76.901 E1.64358
G1 X127.691 Y78.16 E1.72533
G1 X129.903 Y79.395 E1.80959
G1 X131.935 Y80.462 E1.88593
G1 X132.715 Y80.917 E1.91596
G1 X133.568 Y81.523 E1.95076
G1 X134.305 Y82.155 E1.98306
G1 X134.966 Y82.828 E2.01443
G1 X135.711 Y83.754 E2.05396
G1 X136.069 Y84.255 E2.07444
G1 X136.495 Y84.884 E2.09971
G1 X136.998 Y85.718 E2.1321
G1 X137.425 Y86.594 E2.16451
G1 X137.776 Y87.512 E2.1972
G1 X138.087 Y88.644 E2.23625
G1 X138.795 Y91.915 E2.34756
G1 X139.373 Y94.266 E2.42808
G1 X140.059 Y96.743 E2.51357
G1 X140.803 Y99.16 E2.59768
G1 X141.605 Y101.53 E2.6809
G1 X142.478 Y103.889 E2.76456
G1 X143.416 Y106.214 E2.84795
G1 X144.437 Y108.553 E2.93283
G1 X145.501 Y110.82 E3.01612
G1 X146.625 Y113.043 E3.09898
G1 X147.838 Y115.283 E3.1837
G1 X149.095 Y117.459 E3.26728
G1 X150.401 Y119.576 E3.35001
G1 X151.799 Y121.705 E3.43473
G1 X153.256 Y123.79 E3.51933
G1 X154.847 Y125.939 E3.60826
G1 X155.388 Y126.748 E3.64063
G1 X155.857 Y127.601 E3.67301
G1 X156.229 Y128.446 E3.70371
G1 X157.706 Y132.216 E3.83839
G1 X157.997 Y133.07 E3.86839
G1 X158.243 Y134.07 E3.90264
G1 X158.332 Y134.586 E3.92006
G1 X158.429 Y135.276 E3.94324
G1 X158.548 Y136.291 E3.97723
G1 X158.642 Y137.219 E4.00825
G1 X158.998 Y140.433 E4.1158
G1 X159.091 Y141.377 E4.14735
G1 X159.155 Y142.235 E4.17597
G1 X159.194 Y143.126 E4.20563
G1 X159.188 Y144.085 E4.23753
G1 X159.145 Y144.659 E4.25667
G1 X159.039 Y145.689 E4.29111
G1 X158.893 Y146.653 E4.32354
G1 X158.663 Y147.602 E4.35602
G1 X158.344 Y148.539 E4.38894
G1 X158.2 Y148.903 E4.40196
G1 X157.813 Y149.767 E4.43345
G1 X157.095 Y150.998 E4.48084
G1 X156.4 Y152.02 E4.52195
G1 X155.742 Y152.939 E4.55954
G1 X155.184 Y153.65 E4.58961
G1 X154.188 Y154.674 E4.63712
G1 X153.937 Y154.901 E4.64837
G1 X153.24 Y155.476 E4.67843
G1 X152.736 Y155.835 E4.69901
G1 X150.954 Y157.035 E4.77046
G1 X149.321 Y158.186 E4.83691
G1 X148.685 Y158.645 E4.863
G1 X147.897 Y159.161 E4.89433
G1 X146.856 Y159.709 E4.93346
G1 X145.957 Y160.113 E4.96624
G1 X143.804 Y161.01 E5.04381
G1 X143.231 Y161.232 E5.06425
G1 X142.407 Y161.514 E5.09322
G1 X141.435 Y161.804 E5.12695
G1 X140.559 Y162.024 E5.157
G1 X139.819 Y162.151 E5.18197
G1 X139.051 Y162.255 E5.20774
G1 X137.396 Y162.438 E5.26313
G1 X136.394 Y162.5 E5.29652
G1 X135.099 Y162.448 E5.33962
G1 X133.912 Y162.326 E5.37931
G1 X132.61 Y162.161 E5.42296
G1 X131.655 Y161.995 E5.4552
G1 X130.84 Y161.784 E5.4832
G1 X129.857 Y161.487 E5.51736
G1 X129.014 Y161.194 E5.54704
G1 X127.975 Y160.78 E5.58424
G1 X126.61 Y160.208 E5.63346
G1 X124.296 Y159.276 E5.71644
G1 X121.915 Y158.395 E5.80088
G1 X119.503 Y157.579 E5.88557
G1 X117.11 Y156.845 E5.96882
G1 X114.661 Y156.169 E6.05332
G1 X112.256 Y155.576 E6.1357
G1 X109.744 Y155.034 E6.22118
G1 X107.309 Y154.579 E6.30357
G1 X104.853 Y154.192 E6.38626
G1 X102.228 Y153.852 E6.4743
G1 X101.577 Y153.778 E6.49609
G1 X100.652 Y153.628 E6.52726
G1 X99.79 Y153.415 E6.55679
G1 X99.046 Y153.198 E6.58257
G1 X98.124 Y152.882 E6.61498
G1 X97.298 Y152.517 E6.64502
G1 X96.383 Y152.011 E6.6798
G1 X95.578 Y151.465 E6.71215
G1 X94.849 Y150.871 E6.74342
G1 X94.074 Y150.11 E6.77955
G1 X93.529 Y149.519 E6.80629
G1 X92.904 Y148.774 E6.83863
G1 X92.345 Y147.976 E6.87104
G1 X91.876 Y147.162 E6.90228
G1 X91.442 Y146.225 E6.93663
G1 X91.155 Y145.5 E6.96256
G1 X90.837 Y144.637 E6.99315
G1 X89.904 Y142.215 E7.07948
G1 X88.942 Y139.918 E7.16231
G1 X87.914 Y137.641 E7.2454
G1 X86.175 Y134.125 E7.37587
G1 X85.901 Y133.594 E7.39574
G1 X85.509 Y132.746 E7.42681
G1 X85.229 Y131.989 E7.45366
G1 X84.925 Y131.054 E7.48636
G1 X84.617 Y129.993 E7.5231
G1 X84.064 Y127.847 E7.59681
G1 X83.362 Y125.375 E7.68228
G1 X82.606 Y122.977 E7.76591
G1 X81.773 Y120.573 E7.85053
G1 X80.894 Y118.247 E7.93323
G1 X79.404 Y114.659 E8.06245
G1 X79.029 Y113.672 E8.09757
G1 X78.734 Y112.745 E8.12993
G1 X78.519 Y111.791 E8.16245
G1 X78.385 Y110.761 E8.197
G1 X78.3 Y109.697 E8.2325
G1 X78.066 Y107.134 E8.3181
G1 X77.768 Y104.653 E8.40121
G1 X77.392 Y102.12 E8.48638
G1 X76.953 Y99.644 E8.57002
G1 X76.68 Y98.285 E8.61612
G1 X76.585 Y97.74 E8.63452
G1 X76.508 Y97.212 E8.65227
G1 X76.418 Y96.343 E8.68133
G1 X76.307 Y94.577 E8.74018
G1 X76.231 Y92.926 E8.79515
G1 X76.183 Y92.153 E8.82091
G1 X76.164 Y91.613 E8.83888
G1 X76.172 Y90.676 E8.87005
G1 X76.254 Y89.767 E8.90041
G1 X76.36 Y89.065 E8.92402
G1 X76.447 Y88.593 E8.93998
G1 X76.664 Y87.643 E8.97239
G1 X76.941 Y86.783 E9.00244
G1 X77.347 Y85.826 E9.03702
G1 X77.732 Y85.095 E9.0645
G1 X78.109 Y84.457 E9.08915
G1 X78.466 Y83.89 E9.11143
G1 X78.98 Y83.147 E9.14148
G1 X79.648 Y82.345 E9.1762
G1 X80.285 Y81.705 E9.20623
G0 F6000 X80.569 Y81.987
G1 F1200 X81.316 Y81.36 E9.23867
G1 X82.056 Y80.843 E9.26869
G1 X83.051 Y80.281 E9.3067
G1 X85.272 Y79.181 E9.38913
G1 X87.513 Y77.994 E9.47348
G1 X89.717 Y76.745 E9.55774
G1 X91.843 Y75.46 E9.64036
G1 X94.768 Y73.563 E9.75632
G1 X95.547 Y73.105 E9.78637
G1 X96.427 Y72.688 E9.81876
G1 X97.308 Y72.364 E9.84998
G1 X98.214 Y72.119 E9.8812
G1 X99.143 Y71.956 E9.91257
G1 X100.295 Y71.867 E9.951
G1 X101.382 Y71.844 E9.98716
G1 X104.442 Y71.842 E10.08894
G1 X105.601 Y71.858 E10.12749
G1 X108.002 Y71.926 E10.20738
G1 X113.626 Y71.934 E10.39443
G1 X114.33 Y71.944 E10.41785
G1 X115.283 Y72.001 E10.4496
G1 X116.212 Y72.14 E10.48085
G1 X117.125 Y72.361 E10.51209
G1 X117.981 Y72.649 E10.54213
G1 X118.872 Y73.039 E10.57448
G1 X119.664 Y73.473 E10.60452
G1 X120.243 Y73.849 E10.62748
G1 X121.053 Y74.414 E10.66033
G1 X123.173 Y75.846 E10.74542
G1 X125.366 Y77.24 E10.83184
G1 X127.486 Y78.504 E10.91394
G1 X129.717 Y79.749 E10.99891
G1 X131.733 Y80.808 E11.07465
G1 X132.513 Y81.263 E11.10469
G1 X133.308 Y81.827 E11.13711
G1 X134.02 Y82.436 E11.16827
G1 X134.654 Y83.079 E11.1983
G1 X135.399 Y84.005 E11.23783
G1 X135.738 Y84.479 E11.25722
G1 X136.153 Y85.091 E11.28181
G1 X136.639 Y85.894 E11.31303
G1 X137.052 Y86.737 E11.34425
G1 X137.39 Y87.618 E11.37563
G1 X137.696 Y88.729 E11.41396
G1 X138.405 Y92 E11.52528
G1 X138.988 Y94.373 E11.60656
G1 X139.677 Y96.861 E11.69242
G1 X140.424 Y99.288 E11.77688
G1 X141.23 Y101.669 E11.86049
G1 X142.107 Y104.039 E11.94454
G1 X143.049 Y106.374 E12.02828
G1 X144.07 Y108.713 E12.11317
G1 X145.144 Y111 E12.1972
G1 X146.273 Y113.233 E12.28043
G1 X147.486 Y115.473 E12.36515
G1 X148.755 Y117.669 E12.44951
G1 X150.067 Y119.795 E12.5326
G1 X151.471 Y121.934 E12.6177
G1 X152.928 Y124.019 E12.7023
G1 X154.515 Y126.162 E12.79099
G1 X155.038 Y126.941 E12.8222
G1 X155.491 Y127.763 E12.85342
G1 X155.857 Y128.592 E12.88356
G1 X157.327 Y132.345 E13.01762
G1 X157.618 Y133.199 E13.04763
G1 X157.849 Y134.138 E13.07979
G1 X157.936 Y134.642 E13.0968
G1 X158.032 Y135.322 E13.11964
G1 X158.15 Y136.331 E13.15343
G1 X158.244 Y137.263 E13.18458
G1 X158.6 Y140.472 E13.29197
G1 X158.692 Y141.407 E13.32322
G1 X158.755 Y142.253 E13.35144
G1 X158.794 Y143.124 E13.38043
G1 X158.789 Y144.055 E13.4114
G1 X158.747 Y144.618 E13.43018
G1 X158.643 Y145.63 E13.46401
G1 X158.504 Y146.559 E13.49526
G1 X158.284 Y147.473 E13.52652
G1 X157.972 Y148.392 E13.5588
G1 X157.835 Y148.739 E13.57121
G1 X157.448 Y149.603 E13.6027
G1 X156.764 Y150.773 E13.64778
G1 X156.075 Y151.787 E13.68855
G1 X155.427 Y152.692 E13.72557
G1 X154.869 Y153.403 E13.75563
G1 X153.92 Y154.377 E13.80086
G1 X153.682 Y154.592 E13.81153
G1 X152.985 Y155.167 E13.84158
G1 X152.513 Y155.503 E13.86085
G1 X150.731 Y156.703 E13.93231
G1 X149.091 Y157.859 E13.99904
G1 X148.466 Y158.31 E14.02468
G1 X147.678 Y158.826 E14.05601
G1 X146.692 Y159.344 E14.09305
G1 X145.803 Y159.744 E14.12548
G1 X143.659 Y160.637 E14.20272
G1 X143.101 Y160.854 E14.22264
G1 X142.293 Y161.131 E14.25105
G1 X141.338 Y161.416 E14.28419
G1 X140.462 Y161.636 E14.31423
G1 X139.766 Y161.755 E14.33772
G1 X139.007 Y161.857 E14.36319
G1 X137.352 Y162.04 E14.41857
G1 X136.41 Y162.1 E14.44997
G1 X135.14 Y162.05 E14.49224
G1 X133.962 Y161.929 E14.53163
G1 X132.678 Y161.767 E14.57467
G1 X131.755 Y161.608 E14.60582
G1 X130.956 Y161.401 E14.63327
G1 X129.988 Y161.109 E14.6669
G1 X129.162 Y160.822 E14.69599
G1 X128.13 Y160.411 E14.73293
G1 X126.765 Y159.839 E14.78216
G1 X124.435 Y158.901 E14.8657
G1 X122.043 Y158.016 E14.95053
G1 X119.631 Y157.2 E15.03522
G1 X117.216 Y156.459 E15.11924
G1 X114.767 Y155.783 E15.20374
G1 X112.34 Y155.185 E15.28687
G1 X109.828 Y154.643 E15.37235
G1 X107.371 Y154.184 E15.45548
G1 X104.904 Y153.795 E15.53855
G1 X102.279 Y153.456 E15.62658
G1 X101.641 Y153.383 E15.64794
G1 X100.716 Y153.233 E15.6791
G1 X99.902 Y153.031 E15.707
G1 X99.175 Y152.819 E15.73219
G1 X98.286 Y152.516 E15.76343
G1 X97.46 Y152.151 E15.79346
G1 X96.607 Y151.68 E15.82587
G1 X95.83 Y151.154 E15.85708
G1 X95.129 Y150.585 E15.88711
G1 X94.368 Y149.839 E15.92255
G1 X93.835 Y149.262 E15.94868
G1 X93.231 Y148.544 E15.97988
G1 X92.692 Y147.776 E16.01109
G1 X92.223 Y146.962 E16.04234
G1 X91.814 Y146.078 E16.07473
G1 X91.53 Y145.362 E16.10035
G1 X91.212 Y144.499 E16.13094
G1 X90.277 Y142.071 E16.21748
G1 X89.307 Y139.753 E16.30105
G1 X88.279 Y137.476 E16.38415
G1 X86.534 Y133.948 E16.51506
G1 X86.264 Y133.426 E16.53461
G1 X85.872 Y132.578 E16.56568
G1 X85.609 Y131.865 E16.59095
G1 X85.309 Y130.942 E16.62323
G1 X85.004 Y129.893 E16.65957
G1 X84.449 Y127.738 E16.73358
G1 X83.747 Y125.266 E16.81905
G1 X82.984 Y122.846 E16.90345
G1 X82.151 Y120.442 E16.98807
G1 X81.268 Y118.106 E17.07113
G1 X79.778 Y114.517 E17.20038
G1 X79.41 Y113.55 E17.23479
G1 X79.124 Y112.657 E17.26598
G1 X78.916 Y111.739 E17.29729
G1 X78.784 Y110.729 E17.33117
G1 X78.698 Y109.665 E17.36667
G1 X78.464 Y107.098 E17.4524
G1 X78.164 Y104.594 E17.53628
G1 X77.788 Y102.061 E17.62145
G1 X77.347 Y99.574 E17.70546
G1 X77.074 Y98.216 E17.75153
G1 X76.981 Y97.682 E17.76956
G1 X76.906 Y97.171 E17.78674
G1 X76.816 Y96.302 E17.8158
G1 X76.707 Y94.558 E17.87391
G1 X76.63 Y92.907 E17.92889
G1 X76.583 Y92.138 E17.95451
G1 X76.564 Y91.616 E17.97188
G1 X76.572 Y90.679 E18.00305
G1 X76.65 Y89.827 E18.03151
G1 X76.756 Y89.125 E18.05512
G1 X76.837 Y88.682 E18.0701
G1 X77.045 Y87.766 E18.10134
G1 X77.322 Y86.906 E18.13139
G1 X77.701 Y86.012 E18.16369
G1 X78.076 Y85.298 E18.19051
G1 X78.447 Y84.67 E18.21477
G1 X78.795 Y84.118 E18.23647
G1 X79.309 Y83.375 E18.26652
G1 X79.932 Y82.627 E18.2989
G1 X80.569 Y81.987 E18.32893
G0 F6000 X80.853 Y82.269
G1 F1200 X81.545 Y81.688 E18.35899
G1 X82.285 Y81.171 E18.38901
G1 X83.229 Y80.639 E18.42505
G1 X85.45 Y79.539 E18.50749
G1 X87.71 Y78.342 E18.59255
G1 X89.914 Y77.093 E18.6768
G1 X92.061 Y75.796 E18.76023
G1 X94.971 Y73.908 E18.87561
G1 X95.75 Y73.45 E18.90566
G1 X96.566 Y73.063 E18.9357
G1 X97.413 Y72.75 E18.96573
G1 X98.284 Y72.513 E18.99576
G1 X99.174 Y72.355 E19.02582
G1 X100.304 Y72.267 E19.06352
G1 X101.382 Y72.244 E19.09938
G1 X104.436 Y72.242 E19.20096
G1 X105.59 Y72.258 E19.23934
G1 X107.991 Y72.326 E19.31923
G1 X113.62 Y72.334 E19.50645
G1 X114.324 Y72.344 E19.52987
G1 X115.225 Y72.397 E19.55989
G1 X116.119 Y72.529 E19.58995
G1 X116.997 Y72.74 E19.61998
G1 X117.853 Y73.028 E19.65002
G1 X118.68 Y73.39 E19.68005
G1 X119.472 Y73.824 E19.71008
G1 X120.014 Y74.177 E19.7316
G1 X120.824 Y74.742 E19.76444
G1 X122.958 Y76.184 E19.85011
G1 X125.152 Y77.579 E19.93658
G1 X127.281 Y78.848 E20.01902
G1 X129.531 Y80.103 E20.10471
G1 X131.531 Y81.154 E20.17985
G1 X132.311 Y81.609 E20.20989
G1 X133.048 Y82.131 E20.23992
G1 X133.735 Y82.717 E20.26996
G1 X134.369 Y83.36 E20.29999
G1 X135.087 Y84.255 E20.33815
G1 X135.407 Y84.703 E20.35647
G1 X135.811 Y85.299 E20.38041
G1 X136.28 Y86.071 E20.41046
G1 X136.679 Y86.881 E20.44049
G1 X137.004 Y87.724 E20.47054
G1 X137.305 Y88.814 E20.50815
G1 X138.014 Y92.085 E20.61947
G1 X138.603 Y94.48 E20.7015
G1 X139.295 Y96.979 E20.78775
G1 X140.045 Y99.416 E20.87255
G1 X140.855 Y101.808 E20.95655
G1 X141.736 Y104.189 E21.04099
G1 X142.682 Y106.534 E21.12509
G1 X143.703 Y108.873 E21.20997
G1 X144.787 Y111.18 E21.29475
G1 X145.921 Y113.423 E21.37835
G1 X147.134 Y115.663 E21.46307
G1 X148.415 Y117.879 E21.54821
G1 X149.733 Y120.015 E21.63169
G1 X151.143 Y122.163 E21.71715
G1 X152.6 Y124.248 E21.80175
G1 X154.183 Y126.386 E21.89023
G1 X154.688 Y127.135 E21.92027
G1 X155.125 Y127.925 E21.9503
G1 X155.485 Y128.738 E21.97987
G1 X156.948 Y132.474 E22.11332
G1 X157.239 Y133.328 E22.14333
G1 X157.455 Y134.206 E22.1734
G1 X157.54 Y134.698 E22.19001
G1 X157.635 Y135.368 E22.21252
G1 X157.752 Y136.371 E22.2461
G1 X157.846 Y137.307 E22.27739
G1 X158.202 Y140.511 E22.38461
G1 X158.293 Y141.437 E22.41556
G1 X158.355 Y142.271 E22.44337
G1 X158.394 Y143.122 E22.47171
G1 X158.39 Y144.025 E22.50174
G1 X158.349 Y144.577 E22.52015
G1 X158.247 Y145.572 E22.55342
G1 X158.115 Y146.466 E22.58348
G1 X157.905 Y147.344 E22.6135
G1 X157.593 Y148.263 E22.64578
G1 X157.47 Y148.576 E22.65697
G1 X157.103 Y149.401 E22.687
G1 X156.433 Y150.548 E22.73118
G1 X155.75 Y151.554 E22.77162
G1 X155.112 Y152.445 E22.80807
G1 X154.554 Y153.156 E22.83813
G1 X153.652 Y154.08 E22.88108
G1 X153.427 Y154.283 E22.89116
G1 X152.73 Y154.858 E22.92121
G1 X152.29 Y155.171 E22.93917
G1 X150.508 Y156.371 E23.01063
G1 X148.861 Y157.532 E23.07765
G1 X148.246 Y157.976 E23.10288
G1 X147.492 Y158.472 E23.1329
G1 X146.528 Y158.979 E23.16912
G1 X145.649 Y159.375 E23.20119
G1 X143.514 Y160.264 E23.27811
G1 X142.971 Y160.476 E23.2975
G1 X142.179 Y160.748 E23.32535
G1 X141.241 Y161.028 E23.35791
G1 X140.365 Y161.248 E23.38795
G1 X139.713 Y161.359 E23.40995
G1 X138.963 Y161.459 E23.43511
G1 X137.326 Y161.641 E23.48989
G1 X136.425 Y161.7 E23.51993
G1 X135.181 Y161.652 E23.56133
G1 X134.012 Y161.532 E23.60042
G1 X132.745 Y161.373 E23.64289
G1 X131.855 Y161.221 E23.67292
G1 X131.071 Y161.018 E23.69985
G1 X130.119 Y160.731 E23.73293
G1 X129.31 Y160.45 E23.76141
G1 X128.285 Y160.042 E23.7981
G1 X126.92 Y159.47 E23.84733
G1 X124.574 Y158.526 E23.93144
G1 X122.171 Y157.637 E24.01666
G1 X119.759 Y156.821 E24.10135
G1 X117.322 Y156.073 E24.18613
