;FLAVOR:Marlin
;TIME:3904
;Filament used: 1.76183m
;Layer height: 0.2
;MINX:89.873
;MINY:70.912
;MINZ:0.2
;MAXX:147.182
;MAXY:162.855
;MAXZ:18.2
;TARGET_MACHINE.NAME:Creality Ender-3
;Generated with Cura_SteamEngine 5.6.0
M140 S50
M105
M190 S50
M104 S200
M105
M109 S200
M82 ;absolute extrusion mode
; Ender 3 Custom Start G-code
G92 E0 ; Reset Extruder
G28 ; Home all axes
G1 Z2.0 F3000 ; Move Z Axis up little to prevent scratching of Heat Bed
G1 X0.1 Y20 Z0.3 F5000.0 ; Move to start position
G1 X0.1 Y200.0 Z0.3 F1500.0 E15 ; Draw the first line
G1 X0.4 Y200.0 Z0.3 F5000.0 ; Move to side a little
G1 X0.4 Y20 Z0.3 F1500.0 E30 ; Draw the second line
G92 E0 ; Reset Extruder
G1 Z2.0 F3000 ; Move Z Axis up little to prevent scratching of Heat Bed
G1 X5 Y20 Z0.3 F5000.0 ; Move over to prevent blob squish
G92 E0
G92 E0
G1 F2700 E-5
;LAYER_COUNT:91
;LAYER:0
M107
G0 F6000 X92.84 Y81.256 Z0.2
;TYPE:SKIRT
G1 F2700 E0
G1 F1200 X93.544 Y80.534 E0.03354
G1 X94.285 Y79.899 E0.066
G1 X95.082 Y79.332 E0.09853
G1 X96.051 Y78.771 E0.13577
G1 X96.866 Y78.353 E0.16623
G1 X97.754 Y77.916 E0.19915
G1 X99.979 Y76.736 E0.28292
G1 X102.185 Y75.487 E0.36723
G1 X104.326 Y74.194 E0.45042
G1 X106.725 Y72.652 E0.54528
G1 X107.567 Y72.166 E0.57761
G1 X108.451 Y71.754 E0.61005
G1 X109.366 Y71.425 E0.64239
G1 X110.308 Y71.175 E0.67481
G1 X111.277 Y71.01 E0.7075
G1 X112.439 Y70.926 E0.74625
G1 X113.274 Y70.912 E0.77402
G1 X115.406 Y70.912 E0.84493
G1 X116.462 Y70.926 E0.88006
G1 X118.938 Y70.994 E0.96244
G1 X123.887 Y70.998 E1.12705
G1 X124.653 Y71.01 E1.15253
G1 X125.625 Y71.068 E1.18491
G1 X126.589 Y71.214 E1.21734
G1 X127.535 Y71.445 E1.24973
G1 X128.457 Y71.758 E1.28212
G1 X129.347 Y72.15 E1.31446
G1 X130.164 Y72.597 E1.34544
G1 X130.639 Y72.903 E1.36423
G1 X133.246 Y74.669 E1.46896
G1 X135.418 Y76.05 E1.55457
G1 X137.556 Y77.326 E1.63738
G1 X139.858 Y78.611 E1.72507
G1 X141.098 Y79.281 E1.77194
G1 X141.939 Y79.782 E1.8045
G1 X142.843 Y80.431 E1.84152
G1 X143.579 Y81.067 E1.87387
G1 X144.258 Y81.767 E1.9063
G1 X144.871 Y82.524 E1.9387
G1 X145.414 Y83.332 E1.97108
G1 X145.868 Y84.15 E2.0022
G1 X146.267 Y85.037 E2.03455
G1 X146.618 Y86.02 E2.06926
G1 X146.923 Y87.251 E2.11144
G1 X146.993 Y87.629 E2.12423
G1 X147.125 Y88.588 E2.15643
G1 X147.173 Y89.437 E2.18471
G1 X147.182 Y90.117 E2.20733
G1 X147.179 Y92.934 E2.30102
G1 X147.169 Y93.553 E2.32161
G1 X147.11 Y94.54 E2.3545
G1 X147.043 Y95.164 E2.37537
G1 X146.891 Y96.147 E2.40846
G1 X146.765 Y96.707 E2.42755
G1 X146.189 Y98.879 E2.50229
G1 X145.603 Y101.327 E2.58601
G1 X145.082 Y103.815 E2.67055
G1 X144.591 Y106.528 E2.76225
G1 X144.373 Y107.473 E2.79451
G1 X144.108 Y108.306 E2.82358
G1 X143.37 Y110.331 E2.89527
G1 X142.56 Y112.74 E2.9798
G1 X141.82 Y115.163 E3.06406
G1 X141.144 Y117.621 E3.14885
G1 X140.558 Y120.024 E3.23112
G1 X140.02 Y122.528 E3.3163
G1 X139.672 Y124.342 E3.37774
G1 X139.466 Y125.214 E3.40754
G1 X138.628 Y128.2 E3.51069
G1 X138.027 Y130.628 E3.59388
G1 X137.488 Y133.096 E3.6779
G1 X137.016 Y135.597 E3.76256
G1 X136.628 Y138.029 E3.84447
G1 X136.299 Y140.549 E3.929
G1 X136.043 Y143.048 E4.01255
G1 X135.861 Y145.543 E4.09575
G1 X135.744 Y148.119 E4.18152
G1 X135.69 Y150.844 E4.27217
G1 X135.634 Y151.748 E4.30229
G1 X135.605 Y152.022 E4.31146
G1 X135.455 Y153.002 E4.34443
G1 X135.235 Y153.909 E4.37547
G1 X134.982 Y154.69 E4.40278
G1 X134.617 Y155.619 E4.43598
G1 X134.202 Y156.456 E4.46705
G1 X133.771 Y157.179 E4.49505
G1 X133.221 Y157.982 E4.52742
G1 X132.608 Y158.728 E4.55953
G1 X132.022 Y159.338 E4.58767
G1 X131.312 Y159.99 E4.61973
G1 X130.519 Y160.598 E4.65296
G1 X129.867 Y161.023 E4.67885
G1 X128.986 Y161.521 E4.71251
G1 X127.696 Y162.084 E4.75932
G1 X126.589 Y162.434 E4.79794
G1 X125.676 Y162.636 E4.82904
G1 X124.773 Y162.762 E4.85936
G1 X123.627 Y162.843 E4.89757
G1 X122.866 Y162.855 E4.92289
G1 X112.929 Y162.854 E5.25339
G1 X112.196 Y162.842 E5.27778
G1 X111.081 Y162.773 E5.31493
G1 X109.993 Y162.607 E5.35154
G1 X109.086 Y162.386 E5.38259
G1 X108.313 Y162.136 E5.40961
G1 X107.472 Y161.807 E5.43965
G1 X106.32 Y161.219 E5.48266
G1 X106.012 Y161.039 E5.49453
G1 X105.254 Y160.547 E5.52459
G1 X104.438 Y159.909 E5.55904
G1 X103.911 Y159.426 E5.58281
G1 X103.688 Y159.205 E5.59326
G1 X103.026 Y158.492 E5.62562
G1 X102.451 Y157.754 E5.65673
G1 X101.967 Y157.021 E5.68595
G1 X101.516 Y156.238 E5.716
G1 X101.093 Y155.326 E5.74944
G1 X100.782 Y154.483 E5.77932
G1 X100.504 Y153.551 E5.81167
G1 X100.31 Y152.604 E5.84382
G1 X100.21 Y151.807 E5.87054
G1 X100.144 Y150.771 E5.90507
G1 X100.097 Y147.828 E6.00296
G1 X99.988 Y145.285 E6.08762
G1 X99.812 Y142.8 E6.17048
G1 X99.565 Y140.305 E6.25387
G1 X99.244 Y137.798 E6.33793
G1 X98.854 Y135.315 E6.42153
G1 X98.392 Y132.83 E6.5056
G1 X97.868 Y130.39 E6.5886
G1 X97.266 Y127.942 E6.67245
G1 X96.468 Y125.022 E6.77313
G1 X96.155 Y123.774 E6.81593
G1 X95.509 Y121.339 E6.89972
G1 X94.794 Y118.921 E6.98358
G1 X94.015 Y116.539 E7.06694
G1 X93.155 Y114.139 E7.15173
G1 X92.229 Y111.773 E7.23624
G1 X91.781 Y110.688 E7.27528
G1 X91.472 Y109.839 E7.30533
G1 X91.235 Y108.986 E7.33477
G1 X91.036 Y108.05 E7.3666
G1 X90.962 Y107.53 E7.38407
G1 X90.903 Y107.022 E7.40108
G1 X90.832 Y105.906 E7.43827
G1 X90.796 Y102.895 E7.53843
G1 X90.689 Y100.355 E7.62298
G1 X90.514 Y97.86 E7.70617
G1 X90.091 Y93.74 E7.84392
G1 X90.05 Y93.136 E7.86406
G1 X89.898 Y90.252 E7.96011
G1 X89.873 Y89.562 E7.98308
G1 X89.883 Y88.581 E8.01571
G1 X90.007 Y87.418 E8.05461
G1 X90.075 Y86.999 E8.06873
G1 X90.28 Y86.028 E8.10174
G1 X90.566 Y85.097 E8.13413
G1 X90.92 Y84.22 E8.16558
G1 X91.55 Y83.034 E8.21025
G1 X91.7 Y82.79 E8.21978
G1 X92.247 Y81.984 E8.25218
G1 X92.84 Y81.256 E8.28341
G0 F6000 X93.15 Y81.509
G1 F1200 X93.805 Y80.837 E8.31462
G1 X94.517 Y80.225 E8.34584
G1 X95.283 Y79.678 E8.37715
G1 X96.233 Y79.127 E8.41368
G1 X97.043 Y78.712 E8.44395
G1 X97.931 Y78.274 E8.47688
G1 X100.176 Y77.084 E8.56139
G1 X102.382 Y75.835 E8.64571
G1 X104.533 Y74.536 E8.72928
G1 X106.925 Y72.998 E8.82387
G1 X107.737 Y72.528 E8.85507
G1 X108.587 Y72.13 E8.88629
G1 X109.469 Y71.811 E8.91749
G1 X110.376 Y71.569 E8.94871
G1 X111.306 Y71.409 E8.98009
G1 X112.446 Y71.326 E9.01811
G1 X113.281 Y71.312 E9.04589
G1 X115.401 Y71.312 E9.1164
G1 X116.451 Y71.326 E9.15132
G1 X118.927 Y71.394 E9.23371
G1 X123.881 Y71.398 E9.39848
G1 X124.63 Y71.409 E9.42339
G1 X125.566 Y71.464 E9.45458
G1 X126.495 Y71.603 E9.48582
G1 X127.407 Y71.824 E9.51703
G1 X128.296 Y72.124 E9.54824
G1 X129.155 Y72.501 E9.57944
G1 X129.948 Y72.934 E9.60949
G1 X130.415 Y73.234 E9.62795
G1 X133.031 Y75.007 E9.73306
G1 X135.204 Y76.389 E9.81871
G1 X137.351 Y77.67 E9.90187
G1 X139.668 Y78.963 E9.99012
G1 X140.893 Y79.625 E10.03643
G1 X141.734 Y80.126 E10.06899
G1 X142.582 Y80.734 E10.1037
G1 X143.292 Y81.346 E10.13487
G1 X143.947 Y82.019 E10.16611
G1 X144.539 Y82.748 E10.19734
G1 X145.064 Y83.526 E10.22856
G1 X145.503 Y84.315 E10.25859
G1 X145.89 Y85.172 E10.28987
G1 X146.241 Y86.155 E10.32458
G1 X146.53 Y87.324 E10.36463
G1 X146.597 Y87.684 E10.37681
G1 X146.726 Y88.611 E10.40794
G1 X146.773 Y89.442 E10.43563
G1 X146.782 Y90.117 E10.45808
G1 X146.779 Y92.928 E10.55157
G1 X146.77 Y93.529 E10.57156
G1 X146.712 Y94.497 E10.60382
G1 X146.645 Y95.121 E10.62469
G1 X146.501 Y96.059 E10.65625
G1 X146.378 Y96.604 E10.67484
G1 X145.802 Y98.776 E10.74958
G1 X145.211 Y101.245 E10.83401
G1 X144.69 Y103.733 E10.91856
G1 X144.201 Y106.439 E11.01002
G1 X143.992 Y107.352 E11.04117
G1 X143.732 Y108.169 E11.06969
G1 X142.994 Y110.194 E11.14137
G1 X142.177 Y112.623 E11.22661
G1 X141.437 Y115.046 E11.31087
G1 X140.758 Y117.515 E11.39604
G1 X140.169 Y119.929 E11.47869
G1 X139.629 Y122.444 E11.56424
G1 X139.283 Y124.25 E11.6254
G1 X139.081 Y125.106 E11.65466
G1 X138.243 Y128.092 E11.75781
G1 X137.636 Y130.543 E11.84179
G1 X137.097 Y133.011 E11.92581
G1 X136.623 Y135.523 E12.01084
G1 X136.231 Y137.977 E12.09349
G1 X135.902 Y140.497 E12.17802
G1 X135.645 Y143.007 E12.26194
G1 X135.461 Y145.525 E12.34591
G1 X135.344 Y148.101 E12.43168
G1 X135.291 Y150.819 E12.52209
G1 X135.236 Y151.706 E12.55165
G1 X135.207 Y151.98 E12.56082
G1 X135.066 Y152.908 E12.59204
G1 X134.854 Y153.786 E12.62208
G1 X134.601 Y154.567 E12.64938
G1 X134.259 Y155.441 E12.6806
G1 X133.844 Y156.278 E12.71167
G1 X133.441 Y156.953 E12.73782
G1 X132.912 Y157.728 E12.76903
G1 X132.319 Y158.451 E12.80013
G1 X131.751 Y159.043 E12.82742
G1 X131.041 Y159.695 E12.85948
G1 X130.3 Y160.263 E12.89053
G1 X129.669 Y160.675 E12.9156
G1 X128.826 Y161.154 E12.94784
G1 X127.536 Y161.717 E12.99466
G1 X126.503 Y162.043 E13.03069
G1 X125.59 Y162.245 E13.06179
G1 X124.745 Y162.363 E13.09016
G1 X123.621 Y162.443 E13.12764
G1 X122.866 Y162.455 E13.15276
G1 X112.935 Y162.454 E13.48306
G1 X112.22 Y162.443 E13.50685
G1 X111.141 Y162.378 E13.5428
G1 X110.088 Y162.218 E13.57823
G1 X109.181 Y161.997 E13.60928
G1 X108.459 Y161.763 E13.63452
G1 X107.618 Y161.434 E13.66455
G1 X106.522 Y160.874 E13.70549
G1 X106.23 Y160.703 E13.71675
G1 X105.472 Y160.211 E13.7468
G1 X104.708 Y159.614 E13.77905
G1 X104.192 Y159.141 E13.80233
G1 X103.981 Y158.933 E13.81219
G1 X103.342 Y158.246 E13.84339
G1 X102.767 Y157.508 E13.87451
G1 X102.314 Y156.821 E13.90188
G1 X101.863 Y156.038 E13.93193
G1 X101.456 Y155.158 E13.96418
G1 X101.165 Y154.368 E13.99218
G1 X100.896 Y153.47 E14.02336
G1 X100.707 Y152.554 E14.05447
G1 X100.607 Y151.757 E14.08119
G1 X100.544 Y150.765 E14.11425
G1 X100.497 Y147.822 E14.21214
G1 X100.388 Y145.268 E14.29717
G1 X100.211 Y142.772 E14.38039
G1 X99.962 Y140.254 E14.46455
G1 X99.641 Y137.747 E14.54861
G1 X99.249 Y135.253 E14.63258
G1 X98.785 Y132.757 E14.71702
G1 X98.259 Y130.306 E14.8004
G1 X97.652 Y127.837 E14.88496
G1 X96.856 Y124.925 E14.98537
G1 X96.542 Y123.671 E15.02837
G1 X95.896 Y121.236 E15.11216
G1 X95.178 Y118.808 E15.19637
G1 X94.392 Y116.404 E15.28049
G1 X93.532 Y114.004 E15.36529
G1 X92.602 Y111.627 E15.45018
G1 X92.157 Y110.551 E15.48891
G1 X91.848 Y109.702 E15.51896
G1 X91.626 Y108.903 E15.54654
G1 X91.432 Y107.993 E15.57749
G1 X91.359 Y107.484 E15.59459
G1 X91.302 Y106.997 E15.6109
G1 X91.232 Y105.901 E15.64743
G1 X91.196 Y102.878 E15.74798
G1 X91.089 Y100.338 E15.83253
G1 X90.913 Y97.832 E15.91609
G1 X90.49 Y93.713 E16.05381
G1 X90.449 Y93.115 E16.07374
G1 X90.298 Y90.237 E16.1696
G1 X90.273 Y89.565 E16.19196
G1 X90.281 Y88.623 E16.2233
G1 X90.402 Y87.482 E16.26146
G1 X90.47 Y87.063 E16.27558
G1 X90.663 Y86.145 E16.30678
G1 X90.937 Y85.247 E16.33801
G1 X91.291 Y84.37 E16.36946
G1 X91.891 Y83.243 E16.41193
G1 X92.031 Y83.014 E16.42085
G1 X92.557 Y82.237 E16.45206
G1 X93.15 Y81.509 E16.48329
G0 F6000 X93.437 Y81.788
G1 F1200 X94.066 Y81.14 E16.51333
G1 X94.75 Y80.55 E16.54337
G1 X95.484 Y80.024 E16.57341
G1 X96.415 Y79.483 E16.60922
G1 X97.22 Y79.071 E16.6393
G1 X98.108 Y78.632 E16.67224
G1 X100.373 Y77.432 E16.7575
G1 X102.579 Y76.183 E16.84181
G1 X104.74 Y74.878 E16.92578
G1 X107.126 Y73.344 E17.02012
G1 X107.907 Y72.89 E17.05017
G1 X108.724 Y72.506 E17.08019
G1 X109.573 Y72.197 E17.11024
G1 X110.445 Y71.963 E17.14027
G1 X111.335 Y71.808 E17.17032
G1 X112.453 Y71.726 E17.20761
G1 X113.288 Y71.712 E17.23538
G1 X115.396 Y71.712 E17.30549
G1 X116.44 Y71.726 E17.34022
G1 X118.916 Y71.794 E17.4226
G1 X123.876 Y71.798 E17.58757
G1 X124.607 Y71.808 E17.61189
G1 X125.508 Y71.86 E17.64191
G1 X126.402 Y71.992 E17.67196
G1 X127.28 Y72.203 E17.702
G1 X128.136 Y72.49 E17.73203
G1 X128.963 Y72.852 E17.76205
G1 X129.756 Y73.285 E17.7921
G1 X130.191 Y73.565 E17.80931
G1 X132.816 Y75.345 E17.9148
G1 X134.989 Y76.726 E18.00043
G1 X137.156 Y78.019 E18.08436
G1 X139.478 Y79.315 E18.17281
G1 X140.689 Y79.969 E18.21858
G1 X141.501 Y80.451 E18.24999
G1 X142.321 Y81.037 E18.28351
G1 X143.006 Y81.626 E18.31356
G1 X143.637 Y82.272 E18.34359
G1 X144.208 Y82.972 E18.37364
G1 X144.714 Y83.72 E18.40368
G1 X145.153 Y84.509 E18.43371
G1 X145.514 Y85.307 E18.46284
G1 X145.853 Y86.251 E18.4962
G1 X146.137 Y87.397 E18.53547
G1 X146.201 Y87.74 E18.54707
G1 X146.327 Y88.634 E18.5771
G1 X146.373 Y89.447 E18.60418
G1 X146.382 Y90.117 E18.62647
G1 X146.379 Y92.923 E18.7198
G1 X146.371 Y93.505 E18.73916
G1 X146.314 Y94.454 E18.77078
G1 X146.247 Y95.078 E18.79165
G1 X146.111 Y95.971 E18.8217
G1 X145.991 Y96.501 E18.83977
G1 X145.415 Y98.673 E18.91451
G1 X144.819 Y101.163 E18.99967
G1 X144.298 Y103.651 E19.08421
G1 X143.811 Y106.35 E19.17543
G1 X143.611 Y107.231 E19.20548
G1 X143.356 Y108.032 E19.23344
G1 X142.618 Y110.057 E19.30512
G1 X141.794 Y112.506 E19.39106
G1 X141.054 Y114.929 E19.47533
G1 X140.372 Y117.409 E19.56087
G1 X139.78 Y119.834 E19.6439
G1 X139.238 Y122.36 E19.72983
G1 X138.894 Y124.158 E19.79071
G1 X138.696 Y124.998 E19.81942
G1 X137.858 Y127.984 E19.92257
G1 X137.245 Y130.458 E20.00734
G1 X136.706 Y132.926 E20.09136
G1 X136.23 Y135.449 E20.17676
G1 X135.834 Y137.925 E20.26016
G1 X135.505 Y140.445 E20.34468
G1 X135.247 Y142.966 E20.42897
G1 X135.061 Y145.507 E20.51371
G1 X134.944 Y148.083 E20.59948
G1 X134.892 Y150.794 E20.68966
G1 X134.838 Y151.664 E20.71865
G1 X134.811 Y151.921 E20.72725
G1 X134.677 Y152.814 E20.75728
G1 X134.465 Y153.692 E20.78733
G1 X134.228 Y154.422 E20.81285
G1 X133.9 Y155.264 E20.84291
G1 X133.5 Y156.073 E20.87292
G1 X133.11 Y156.728 E20.89828
G1 X132.602 Y157.475 E20.92833
G1 X132.03 Y158.174 E20.95837
G1 X131.462 Y158.766 E20.98565
G1 X130.797 Y159.378 E21.01571
G1 X130.081 Y159.928 E21.04574
G1 X129.45 Y160.34 E21.07081
G1 X128.666 Y160.788 E21.10084
G1 X127.415 Y161.336 E21.14626
G1 X126.416 Y161.653 E21.18112
G1 X125.534 Y161.849 E21.21117
G1 X124.716 Y161.964 E21.23865
G1 X123.615 Y162.043 E21.27536
G1 X122.866 Y162.055 E21.30028
G1 X112.941 Y162.054 E21.63038
G1 X112.244 Y162.044 E21.65357
G1 X111.2 Y161.982 E21.68835
G1 X110.182 Y161.829 E21.72259
G1 X109.304 Y161.616 E21.75264
G1 X108.605 Y161.39 E21.77708
G1 X107.764 Y161.061 E21.80711
G1 X106.724 Y160.529 E21.84597
G1 X106.448 Y160.367 E21.85661
G1 X105.69 Y159.875 E21.88667
G1 X104.978 Y159.319 E21.91671
G1 X104.472 Y158.855 E21.93955
G1 X104.273 Y158.66 E21.94881
G1 X103.657 Y158 E21.97884
G1 X103.101 Y157.288 E22.00889
G1 X102.661 Y156.621 E22.03546
G1 X102.21 Y155.838 E22.06552
G1 X101.831 Y155.019 E22.09553
G1 X101.548 Y154.253 E22.12269
G1 X101.288 Y153.389 E22.1527
G1 X101.104 Y152.504 E22.18277
G1 X101.004 Y151.707 E22.20948
G1 X100.944 Y150.759 E22.24108
G1 X100.897 Y147.816 E22.33898
G1 X100.788 Y145.251 E22.42436
G1 X100.61 Y142.744 E22.50796
G1 X100.359 Y140.203 E22.59288
G1 X100.038 Y137.696 E22.67695
G1 X99.644 Y135.191 E22.76129
G1 X99.178 Y132.684 E22.8461
G1 X98.65 Y130.222 E22.92985
G1 X98.038 Y127.732 E23.01513
G1 X97.244 Y124.828 E23.11526
G1 X96.93 Y123.574 E23.15826
G1 X96.28 Y121.122 E23.24263
G1 X95.561 Y118.694 E23.32685
G1 X94.769 Y116.269 E23.4117
G1 X93.909 Y113.869 E23.49649
G1 X92.975 Y111.481 E23.58178
G1 X92.533 Y110.414 E23.62019
G1 X92.224 Y109.565 E23.65024
G1 X92.017 Y108.819 E23.67599
G1 X91.828 Y107.936 E23.70602
G1 X91.756 Y107.437 E23.72279
G1 X91.701 Y106.971 E23.7384
G1 X91.632 Y105.896 E23.77423
G1 X91.596 Y102.861 E23.87518
G1 X91.489 Y100.321 E23.95974
G1 X91.312 Y97.804 E24.04366
G1 X90.889 Y93.685 E24.18138
G1 X90.848 Y93.094 E24.20108
G1 X90.698 Y90.222 E24.29673
G1 X90.673 Y89.568 E24.3185
G1 X90.679 Y88.665 E24.34854
G1 X90.797 Y87.546 E24.38596
G1 X90.862 Y87.145 E24.39947
G1 X91.046 Y86.261 E24.42951
G1 X91.308 Y85.396 E24.45957
G1 X91.644 Y84.558 E24.48959
G1 X92.232 Y83.452 E24.53126
G1 X92.363 Y83.238 E24.5396
G1 X92.868 Y82.489 E24.56965
G1 X93.437 Y81.788 E24.59968
G1 F2700 E19.59968
G0 F6000 X110.299 Y88.845
G1 F2700 E24.59968
