;FLAVOR:Marlin
;TIME:8134
;Filament used: 4.30618m
;Layer height: 0.2
;MINX:82.578
;MINY:59.055
;MINZ:0.2
;MAXX:152.438
;MAXY:176.945
;MAXZ:24.6
;TARGET_MACHINE.NAME:Creality Ender-3
;Generated with Cura_SteamEngine 5.6.0
M140 S50
M105
M190 S50
M104 S200
M105
M109 S200
M82 ;absolute extrusion mode
; Ender 3 Custom Start G-code
G92 E0 ; Reset Extruder
G28 ; Home all axes
G1 Z2.0 F3000 ; Move Z Axis up little to prevent scratching of Heat Bed
G1 X0.1 Y20 Z0.3 F5000.0 ; Move to start position
G1 X0.1 Y200.0 Z0.3 F1500.0 E15 ; Draw the first line
G1 X0.4 Y200.0 Z0.3 F5000.0 ; Move to side a little
G1 X0.4 Y20 Z0.3 F1500.0 E30 ; Draw the second line
G92 E0 ; Reset Extruder
G1 Z2.0 F3000 ; Move Z Axis up little to prevent scratching of Heat Bed
G1 X5 Y20 Z0.3 F5000.0 ; Move over to prevent blob squish
G92 E0
G92 E0
G1 F2700 E-5
;LAYER_COUNT:123
;LAYER:0
M107
G0 F6000 X85.203 Y72.251 Z0.2
;TYPE:SKIRT
G1 F2700 E0
G1 F1200 X85.875 Y71.498 E0.03357
G1 X86.587 Y70.833 E0.06597
G1 X87.326 Y70.253 E0.09722
G1 X88.167 Y69.706 E0.13059
G1 X88.887 Y69.318 E0.15779
G1 X89.668 Y68.936 E0.18671
G1 X91.053 Y68.279 E0.23769
G1 X93.303 Y67.132 E0.32169
G1 X95.492 Y65.938 E0.40462
G1 X97.703 Y64.649 E0.48974
G1 X99.826 Y63.328 E0.57291
G1 X101.979 Y61.905 E0.65875
G1 X103.281 Y61.004 E0.71141
G1 X104.045 Y60.523 E0.74144
G1 X104.976 Y60.047 E0.77621
G1 X105.879 Y59.685 E0.80857
G1 X106.742 Y59.422 E0.83858
G1 X107.766 Y59.208 E0.87337
G1 X108.72 Y59.095 E0.90532
G1 X109.299 Y59.069 E0.9246
G1 X110.11 Y59.055 E0.95158
G1 X113.52 Y59.055 E1.065
G1 X114.387 Y59.066 E1.09383
G1 X115.316 Y59.101 E1.12476
G1 X117.873 Y59.173 E1.20984
G1 X119.986 Y59.16 E1.28012
G1 X120.388 Y59.176 E1.2935
G1 X124.931 Y59.17 E1.4446
G1 X125.603 Y59.181 E1.46695
G1 X126.577 Y59.24 E1.49941
G1 X127.671 Y59.407 E1.53621
G1 X128.725 Y59.666 E1.57231
G1 X129.646 Y59.982 E1.6047
G1 X130.505 Y60.362 E1.63594
G1 X131.383 Y60.847 E1.6693
G1 X132.024 Y61.272 E1.69488
G1 X134.549 Y63.076 E1.7981
G1 X136.615 Y64.468 E1.88095
G1 X138.78 Y65.84 E1.9662
G1 X140.913 Y67.109 E2.04875
G1 X143.099 Y68.327 E2.13198
G1 X146.255 Y69.952 E2.25005
G1 X147.115 Y70.447 E2.28305
G1 X147.912 Y71.006 E2.31543
G1 X148.657 Y71.634 E2.34784
G1 X149.343 Y72.324 E2.3802
G1 X149.966 Y73.073 E2.4126
G1 X150.519 Y73.873 E2.44495
G1 X150.984 Y74.685 E2.47607
G1 X151.143 Y74.994 E2.48763
G1 X151.555 Y75.897 E2.52064
G1 X151.878 Y76.813 E2.55295
G1 X152.12 Y77.75 E2.58514
G1 X152.286 Y78.696 E2.61708
G1 X152.4 Y79.653 E2.64914
G1 X152.427 Y80.271 E2.66971
G1 X152.438 Y80.982 E2.69336
G1 X152.437 Y85.192 E2.83339
G1 X152.425 Y85.962 E2.859
G1 X152.351 Y87.069 E2.8959
G1 X152.266 Y87.786 E2.91991
G1 X152.119 Y88.677 E2.94995
G1 X151.852 Y89.715 E2.9856
G1 X151.449 Y91.012 E3.03077
G1 X150.716 Y93.505 E3.1172
G1 X150.076 Y95.93 E3.20062
G1 X149.506 Y98.372 E3.28402
G1 X148.926 Y101.236 E3.38121
G1 X148.713 Y102.395 E3.4204
G1 X148.493 Y103.342 E3.45274
G1 X148.225 Y104.17 E3.48169
G1 X147.839 Y105.215 E3.51874
G1 X146.972 Y107.67 E3.60533
G1 X146.2 Y110.069 E3.68916
G1 X145.492 Y112.502 E3.77343
G1 X144.865 Y114.911 E3.85623
G1 X144.291 Y117.413 E3.94161
G1 X143.807 Y119.821 E4.0233
G1 X143.259 Y123.068 E4.13282
G1 X143.039 Y124.072 E4.16701
G1 X142.858 Y124.704 E4.18887
G1 X142.455 Y125.981 E4.23341
G1 X142.033 Y127.255 E4.27805
G1 X141.3 Y129.691 E4.36266
G1 X140.641 Y132.129 E4.44666
G1 X140.054 Y134.578 E4.53042
G1 X139.543 Y137.013 E4.61317
G1 X139.091 Y139.5 E4.69724
G1 X138.719 Y141.956 E4.77986
G1 X138.408 Y144.488 E4.86471
G1 X138.17 Y147.006 E4.94883
G1 X138.008 Y149.482 E5.03136
G1 X137.91 Y152.062 E5.11723
G1 X137.886 Y154.109 E5.18532
G1 X137.885 Y162.757 E5.47295
G1 X137.873 Y163.485 E5.49717
G1 X137.806 Y164.518 E5.5316
G1 X137.738 Y165.121 E5.55178
G1 X137.583 Y166.082 E5.58416
G1 X137.35 Y167.01 E5.61598
G1 X137.195 Y167.486 E5.63263
G1 X136.984 Y168.084 E5.65372
G1 X136.62 Y168.986 E5.68608
G1 X136.211 Y169.791 E5.71611
G1 X135.631 Y170.741 E5.75313
G1 X135.119 Y171.485 E5.78317
G1 X134.321 Y172.431 E5.82433
G1 X133.874 Y172.903 E5.84595
G1 X133.16 Y173.59 E5.87891
G1 X132.458 Y174.158 E5.90894
G1 X131.83 Y174.593 E5.93435
G1 X131.28 Y174.945 E5.95607
G1 X130.421 Y175.439 E5.98903
G1 X129.55 Y175.846 E6.021
G1 X129.007 Y176.053 E6.04033
G1 X128.4 Y176.264 E6.06171
G1 X127.469 Y176.542 E6.09402
G1 X126.585 Y176.726 E6.12405
G1 X125.489 Y176.864 E6.1608
G1 X124.41 Y176.933 E6.19676
G1 X123.487 Y176.945 E6.22746
G1 X109.663 Y176.944 E6.68725
G1 X108.923 Y176.932 E6.71186
G1 X107.861 Y176.862 E6.74726
G1 X107.271 Y176.794 E6.76701
G1 X106.294 Y176.633 E6.79995
G1 X105.001 Y176.276 E6.84456
G1 X104.351 Y176.051 E6.86744
G1 X103.512 Y175.717 E6.89747
G1 X102.618 Y175.267 E6.93076
G1 X102.117 Y174.969 E6.95015
G1 X101.583 Y174.63 E6.97119
G1 X100.786 Y174.071 E7.00357
G1 X100.094 Y173.492 E7.03358
G1 X99.302 Y172.715 E7.07048
G1 X98.668 Y172.018 E7.10182
G1 X97.961 Y171.073 E7.14107
G1 X97.586 Y170.509 E7.1636
G1 X97.102 Y169.705 E7.19481
G1 X96.663 Y168.806 E7.22809
G1 X96.392 Y168.117 E7.25271
G1 X96.173 Y167.498 E7.27455
G1 X95.899 Y166.599 E7.30581
G1 X95.695 Y165.629 E7.33878
G1 X95.625 Y165.132 E7.35547
G1 X95.557 Y164.545 E7.37513
G1 X95.487 Y163.46 E7.41129
G1 X95.476 Y162.606 E7.43969
G1 X95.476 Y151.969 E7.79348
G1 X95.439 Y149.375 E7.87977
G1 X95.329 Y146.813 E7.96506
G1 X95.154 Y144.346 E8.04732
G1 X94.907 Y141.851 E8.13071
G1 X94.586 Y139.344 E8.21477
G1 X94.193 Y136.843 E8.29898
G1 X93.734 Y134.376 E8.38244
G1 X93.217 Y131.968 E8.46435
G1 X92.471 Y128.968 E8.56717
G1 X92.221 Y128.028 E8.59952
G1 X92.08 Y127.422 E8.62022
G1 X91.897 Y126.527 E8.6506
G1 X91.317 Y123.893 E8.74031
G1 X90.72 Y121.502 E8.82227
G1 X90.031 Y119.041 E8.90727
G1 X89.281 Y116.632 E8.99119
G1 X88.478 Y114.289 E9.07357
G1 X87.599 Y111.938 E9.15705
G1 X86.345 Y108.886 E9.26679
G1 X85.897 Y107.847 E9.30443
G1 X85.585 Y107.068 E9.33234
G1 X85.272 Y106.156 E9.36441
G1 X85.105 Y105.518 E9.38634
G1 X84.927 Y104.742 E9.41282
G1 X84.755 Y103.777 E9.44542
G1 X84.661 Y102.615 E9.4842
G1 X84.643 Y101.949 E9.50636
G1 X84.535 Y99.34 E9.59321
G1 X84.361 Y96.841 E9.67653
G1 X84.115 Y94.334 E9.76031
G1 X83.798 Y91.833 E9.84416
G1 X83.414 Y89.361 E9.92736
G1 X83.013 Y87.15 E10.0021
G1 X82.884 Y86.178 E10.03471
G1 X82.834 Y85.505 E10.05716
G1 X82.61 Y81.306 E10.19702
G1 X82.578 Y80.414 E10.22671
G1 X82.591 Y79.392 E10.2607
G1 X82.62 Y78.906 E10.27689
G1 X82.724 Y77.938 E10.30927
G1 X82.897 Y77.052 E10.3393
G1 X83.185 Y76.054 E10.37385
G1 X83.337 Y75.609 E10.38949
G1 X83.666 Y74.768 E10.41952
G1 X84.131 Y73.832 E10.45429
G1 X84.643 Y73.004 E10.48666
G1 X85.203 Y72.251 E10.51788
G0 F6000 X85.524 Y72.49
G1 F1200 X86.149 Y71.79 E10.54909
G1 X86.834 Y71.148 E10.58031
G1 X87.573 Y70.568 E10.61156
G1 X88.357 Y70.058 E10.64267
G1 X89.063 Y69.677 E10.66935
G1 X89.839 Y69.297 E10.69809
G1 X91.235 Y68.635 E10.74947
G1 X93.495 Y67.483 E10.83384
G1 X95.684 Y66.289 E10.91678
G1 X97.904 Y64.995 E11.00224
G1 X100.047 Y63.662 E11.08618
G1 X102.2 Y62.239 E11.17202
G1 X103.494 Y61.343 E11.22437
G1 X104.258 Y60.862 E11.2544
G1 X105.125 Y60.418 E11.28679
G1 X105.996 Y60.068 E11.31801
G1 X106.859 Y59.805 E11.34802
G1 X107.813 Y59.605 E11.38044
G1 X108.738 Y59.495 E11.41142
G1 X109.306 Y59.469 E11.43034
G1 X110.117 Y59.455 E11.45731
G1 X113.515 Y59.455 E11.57033
G1 X114.372 Y59.466 E11.59884
G1 X115.301 Y59.501 E11.62976
G1 X117.864 Y59.573 E11.71504
G1 X119.97 Y59.56 E11.78509
G1 X120.373 Y59.576 E11.7985
G1 X124.925 Y59.57 E11.9499
G1 X125.579 Y59.58 E11.97165
G1 X126.517 Y59.636 E12.00291
G1 X127.576 Y59.796 E12.03853
G1 X128.596 Y60.045 E12.07345
G1 X129.484 Y60.348 E12.10466
G1 X130.343 Y60.728 E12.1359
G1 X131.162 Y61.18 E12.16701
G1 X131.791 Y61.597 E12.19211
G1 X134.325 Y63.408 E12.29571
G1 X136.391 Y64.8 E12.37856
G1 X138.575 Y66.184 E12.46456
G1 X140.708 Y67.453 E12.54711
G1 X142.916 Y68.683 E12.63118
G1 X146.056 Y70.299 E12.74863
G1 X146.886 Y70.775 E12.78045
G1 X147.655 Y71.312 E12.81165
G1 X148.374 Y71.916 E12.84288
G1 X149.036 Y72.58 E12.87407
G1 X149.637 Y73.301 E12.90529
G1 X150.172 Y74.072 E12.9365
G1 X150.628 Y74.868 E12.96701
G1 X150.779 Y75.161 E12.97798
G1 X151.178 Y76.031 E13.00981
G1 X151.491 Y76.914 E13.04097
G1 X151.726 Y77.819 E13.07207
G1 X151.889 Y78.744 E13.10331
G1 X152 Y79.671 E13.13436
G1 X152.027 Y80.277 E13.15454
G1 X152.038 Y80.982 E13.17799
G1 X152.037 Y85.186 E13.31781
G1 X152.026 Y85.936 E13.34276
G1 X151.954 Y87.022 E13.37896
G1 X151.871 Y87.721 E13.40237
G1 X151.724 Y88.612 E13.43241
G1 X151.47 Y89.596 E13.46621
G1 X151.067 Y90.893 E13.51138
G1 X150.332 Y93.392 E13.59802
G1 X149.689 Y95.828 E13.68181
G1 X149.116 Y98.281 E13.7656
G1 X148.534 Y101.157 E13.86319
G1 X148.323 Y102.305 E13.90202
G1 X148.112 Y103.219 E13.93321
G1 X147.85 Y104.031 E13.96159
G1 X147.464 Y105.076 E13.99865
G1 X146.591 Y107.547 E14.08581
G1 X145.819 Y109.946 E14.16963
G1 X145.108 Y112.39 E14.25429
G1 X144.478 Y114.81 E14.33746
G1 X143.901 Y117.323 E14.42322
G1 X143.415 Y119.742 E14.50528
G1 X142.868 Y122.983 E14.6146
G1 X142.654 Y123.962 E14.64793
G1 X142.473 Y124.594 E14.6698
G1 X142.075 Y125.855 E14.71378
G1 X141.653 Y127.129 E14.75842
G1 X140.917 Y129.576 E14.84341
G1 X140.255 Y132.025 E14.92778
G1 X139.665 Y134.485 E15.01192
G1 X139.149 Y136.942 E15.09543
G1 X138.698 Y139.429 E15.17949
G1 X138.322 Y141.907 E15.26286
G1 X138.011 Y144.439 E15.3477
G1 X137.772 Y146.968 E15.43219
G1 X137.608 Y149.467 E15.51549
G1 X137.51 Y152.047 E15.60136
G1 X137.486 Y154.104 E15.66978
G1 X137.485 Y162.751 E15.95738
G1 X137.474 Y163.459 E15.98093
G1 X137.409 Y164.473 E16.01473
G1 X137.343 Y165.058 E16.03431
G1 X137.195 Y165.985 E16.06553
G1 X136.969 Y166.887 E16.09646
G1 X136.818 Y167.353 E16.11275
G1 X136.613 Y167.935 E16.13328
G1 X136.263 Y168.805 E16.16447
G1 X135.854 Y169.61 E16.1945
G1 X135.301 Y170.514 E16.22974
G1 X134.789 Y171.258 E16.25978
G1 X134.03 Y172.156 E16.29889
G1 X133.596 Y172.615 E16.3199
G1 X132.908 Y173.279 E16.3517
G1 X132.206 Y173.847 E16.38174
G1 X131.614 Y174.256 E16.40567
G1 X131.064 Y174.608 E16.42739
G1 X130.252 Y175.077 E16.45858
G1 X129.407 Y175.472 E16.4896
G1 X128.875 Y175.675 E16.50854
G1 X128.285 Y175.881 E16.52932
G1 X127.387 Y176.15 E16.5605
G1 X126.503 Y176.334 E16.59054
G1 X125.439 Y176.467 E16.6262
G1 X124.405 Y176.533 E16.66066
G1 X123.487 Y176.545 E16.6912
G1 X109.669 Y176.544 E17.15078
G1 X108.949 Y176.533 E17.17473
G1 X107.907 Y176.465 E17.20947
G1 X107.335 Y176.399 E17.22862
G1 X106.4 Y176.247 E17.26012
G1 X105.107 Y175.89 E17.30474
G1 X104.499 Y175.679 E17.32614
G1 X103.66 Y175.345 E17.35618
G1 X102.822 Y174.923 E17.38738
G1 X102.331 Y174.631 E17.40638
G1 X101.812 Y174.302 E17.42682
G1 X101.043 Y173.764 E17.45804
G1 X100.351 Y173.185 E17.48805
G1 X99.597 Y172.445 E17.52319
G1 X98.988 Y171.778 E17.55323
G1 X98.294 Y170.852 E17.59171
G1 X97.929 Y170.303 E17.61364
G1 X97.445 Y169.499 E17.64485
G1 X97.035 Y168.659 E17.67594
G1 X96.769 Y167.984 E17.70007
G1 X96.556 Y167.381 E17.72134
G1 X96.282 Y166.482 E17.7526
G1 X96.091 Y165.573 E17.7835
G1 X96.022 Y165.086 E17.79986
G1 X95.956 Y164.519 E17.81884
G1 X95.887 Y163.455 E17.85431
G1 X95.876 Y162.601 E17.88271
G1 X95.876 Y151.969 E18.23633
G1 X95.839 Y149.369 E18.32282
G1 X95.729 Y146.796 E18.40848
G1 X95.553 Y144.318 E18.4911
G1 X95.304 Y141.8 E18.57526
G1 X94.983 Y139.293 E18.65932
G1 X94.588 Y136.781 E18.7439
G1 X94.127 Y134.303 E18.82773
G1 X93.608 Y131.884 E18.91002
G1 X92.858 Y128.865 E19.01348
G1 X92.611 Y127.937 E19.04542
G1 X92.472 Y127.342 E19.06575
G1 X92.289 Y126.447 E19.09613
G1 X91.708 Y123.807 E19.18604
G1 X91.108 Y121.405 E19.26838
G1 X90.416 Y118.933 E19.35376
G1 X89.663 Y116.513 E19.43806
G1 X88.853 Y114.149 E19.52117
G1 X87.974 Y111.798 E19.60465
G1 X86.715 Y108.734 E19.71483
G1 X86.268 Y107.698 E19.75236
G1 X85.963 Y106.938 E19.7796
G1 X85.659 Y106.055 E19.81066
G1 X85.495 Y105.429 E19.83218
G1 X85.321 Y104.671 E19.85805
G1 X85.154 Y103.744 E19.88938
G1 X85.061 Y102.604 E19.92742
G1 X85.043 Y101.938 E19.94958
G1 X84.935 Y99.323 E20.03663
G1 X84.76 Y96.813 E20.12031
G1 X84.513 Y94.295 E20.20446
G1 X84.195 Y91.783 E20.28868
G1 X83.808 Y89.29 E20.37259
G1 X83.41 Y87.097 E20.44672
G1 X83.281 Y86.125 E20.47933
G1 X83.233 Y85.484 E20.50071
G1 X83.01 Y81.291 E20.64037
G1 X82.978 Y80.419 E20.66939
G1 X82.99 Y79.416 E20.70276
G1 X83.018 Y78.948 E20.71835
G1 X83.117 Y78.015 E20.74955
G1 X83.29 Y77.129 E20.77958
G1 X83.564 Y76.183 E20.81234
G1 X83.71 Y75.755 E20.82738
G1 X84.039 Y74.914 E20.85741
G1 X84.472 Y74.042 E20.8898
G1 X84.964 Y73.243 E20.921
G1 X85.524 Y72.49 E20.95222
G0 F6000 X85.823 Y72.756
G1 F1200 X86.423 Y72.081 E20.98225
G1 X87.081 Y71.462 E21.0123
G1 X87.791 Y70.903 E21.04236
G1 X88.547 Y70.41 E21.07238
G1 X89.239 Y70.036 E21.09854
G1 X90.01 Y69.658 E21.1271
G1 X91.417 Y68.991 E21.17889
G1 X93.677 Y67.839 E21.26326
G1 X95.885 Y66.635 E21.3469
G1 X98.105 Y65.341 E21.43237
G1 X100.268 Y63.996 E21.51708
G1 X102.421 Y62.573 E21.60292
G1 X103.707 Y61.682 E21.65496
G1 X104.471 Y61.201 E21.68498
G1 X105.275 Y60.789 E21.71503
G1 X106.113 Y60.451 E21.74509
G1 X106.976 Y60.188 E21.77509
G1 X107.86 Y60.002 E21.80514
G1 X108.757 Y59.895 E21.83518
G1 X109.313 Y59.869 E21.8537
G1 X110.124 Y59.855 E21.88068
G1 X113.51 Y59.855 E21.99329
G1 X114.357 Y59.866 E22.02147
G1 X115.286 Y59.901 E22.05239
G1 X117.855 Y59.973 E22.13787
G1 X119.954 Y59.96 E22.20768
G1 X120.358 Y59.976 E22.22113
G1 X124.919 Y59.97 E22.37283
G1 X125.556 Y59.979 E22.39402
G1 X126.458 Y60.032 E22.42407
G1 X127.482 Y60.185 E22.45851
G1 X128.468 Y60.424 E22.49225
G1 X129.323 Y60.714 E22.52228
G1 X130.15 Y61.078 E22.55233
G1 X130.941 Y61.514 E22.58237
G1 X131.558 Y61.922 E22.60698
G1 X134.101 Y63.74 E22.71095
G1 X136.167 Y65.132 E22.7938
G1 X138.362 Y66.523 E22.88023
G1 X140.504 Y67.797 E22.96313
G1 X142.733 Y69.039 E23.048
G1 X145.873 Y70.655 E23.16545
G1 X146.657 Y71.103 E23.19548
G1 X147.398 Y71.619 E23.22552
G1 X148.091 Y72.199 E23.25557
G1 X148.729 Y72.837 E23.28558
G1 X149.309 Y73.53 E23.31564
G1 X149.825 Y74.271 E23.34567
G1 X150.272 Y75.051 E23.37557
G1 X150.423 Y75.344 E23.38654
G1 X150.801 Y76.165 E23.4166
G1 X151.104 Y77.015 E23.44661
G1 X151.332 Y77.889 E23.47666
G1 X151.492 Y78.792 E23.50716
G1 X151.6 Y79.689 E23.53721
G1 X151.627 Y80.283 E23.55698
G1 X151.638 Y80.982 E23.58024
G1 X151.637 Y85.181 E23.71989
G1 X151.627 Y85.91 E23.74414
G1 X151.557 Y86.975 E23.77964
G1 X151.476 Y87.656 E23.80245
G1 X151.329 Y88.547 E23.83249
G1 X151.088 Y89.477 E23.86444
G1 X150.685 Y90.774 E23.90961
G1 X149.948 Y93.279 E23.99646
G1 X149.303 Y95.726 E24.08063
G1 X148.724 Y98.202 E24.1652
G1 X148.142 Y101.078 E24.2628
G1 X147.933 Y102.216 E24.30128
G1 X147.731 Y103.096 E24.33131
G1 X147.469 Y103.908 E24.35969
G1 X147.089 Y104.938 E24.3962
G1 X146.21 Y107.424 E24.48391
G1 X145.438 Y109.823 E24.56773
G1 X144.724 Y112.278 E24.65276
G1 X144.091 Y114.709 E24.73631
G1 X143.511 Y117.233 E24.82245
G1 X143.023 Y119.663 E24.90489
G1 X142.477 Y122.898 E25.014
G1 X142.269 Y123.852 E25.04648
G1 X142.092 Y124.473 E25.06796
G1 X141.695 Y125.729 E25.11177
G1 X141.273 Y127.003 E25.15641
G1 X140.534 Y129.461 E25.24178
G1 X139.869 Y131.921 E25.32653
G1 X139.276 Y134.392 E25.41105
G1 X138.755 Y136.871 E25.4953
G1 X138.305 Y139.358 E25.57937
G1 X137.925 Y141.858 E25.66347
G1 X137.614 Y144.39 E25.74832
G1 X137.374 Y146.93 E25.83318
G1 X137.208 Y149.452 E25.91724
G1 X137.11 Y152.032 E26.00311
G1 X137.086 Y154.099 E26.07187
G1 X137.085 Y162.745 E26.35943
G1 X137.075 Y163.434 E26.38235
G1 X137.012 Y164.428 E26.41548
G1 X136.948 Y164.996 E26.43449
